X: 32824
T: Pope's Visit, The
R: hornpipe
M: 4/4
K: Gmajor
|:Bc|d2 d/d/d BGBc|dBdg edcB|cdcB A2 AB|c2 c/c/c edcA|
d2 d/d/d BGBc|dBdg edcB|c/d/c AF DFAc|B2 G2 G2:|
|:Bc|d/^c/d BGDG Bd|DGBd edcB|c/d/c AF DFAc|DFAc edBc|
d/^c/d BG DGBd|DGBd edcB|c/d/c AF DFAc|B2 G2G2:|

